X:1
T:Tales from the Vienna Woods
C:Johann Strauss II
M:3/4
L:1/4
Q:1/4=168
K:G
% Main waltz theme — Op. 325, Waltz 1 (16 bars, G major, range G4–D5)
D | G B d | d c B | A G A | G3 | G B d | d c B | A2 G | G2 d |
B d c | B2 A | G A B | c3 | d c B | A G A | G2 A | G3 |]
